X:33
T:Gabriel's Message
%%stretchlast false
M:3/4
L:1/4
K:Ab clef=C1
"^iii"[C,C] "^vi"[F,,C,A,F]2 | [F,,C,CA] "^vii"[F,,C,B,G]2 | "^ii²"[F,,C,DB] "^vi"[F,,C,CA]2 | "^vii"[F,,C,B,G] "^vi"[F,A,CF]3 | "^viiø7³"[F,B,DG]3 | [F,G,B,C]3 | "^III7¹"[=E,G,B,C]2 | "^iii7¹"[E,G,B,C] "^♯vii"[F,A,F]2 | "^vi"[F,,F,CA] "^vii7³"[F,,F,B,G]2 | "^ii²"[F,,F,DB] "^vi"[F,,F,CA]2 | "^vii°¹"[B,,G,DG] "^vi¹"[A,,A,CF]3 | [C,G,CF]2 | "^iii"[C,G,CE] "^vi"[F,A,CF]3 | [F,A,CF]2 | "^iii+"[A,,A,CA] [A,,A,CA]2 | "^V7¹"[G,,E,DB] "^I"[A,,E,CA]2 | "^vii°¹"[B,,B,DG] "^I¹"[C,A,EA]2 | "^vii°¹"[B,,G,DB] "^iii+"[A,,A,Cc]2 | [A,,A,Cc] "^ii¹"[D,F,FB]3 | "^II7¹"[=D,B,FA]3 | "^V"[E,B,FG]3 | [E,B,EG]2 | "^I¹"[C,A,EA] "^ii¹"[D,F,B,B]2 | "^ii7¹"[D,F,B,A] "^viiø7²"[D,F,B,G]2 | "^ii¹"[D,F,B,F] "^vii"[C,F,B,G]3 | "^III"[C,=E,B,C]3 | "^IV"[D,F,A,F]3 | "^ii7"[B,,F,DA] "^viiø7¹"[B,,F,DG] | "^ii7"[B,,F,DA] "^vi¹"[A,,A,CF]3 | [C,G,CF]2 | "^iii"[C,G,CE] "^vi²"[C,F,A,F]3 | [C,F,A,F]3 |]
